X: 6
T: Initiation song
N: Derived from ojibwa06.krn
C: Chippewa Songs ~ 1910
O: Red Wing, Minnesota, U.S.A
N: Chippewa Music by Frances Densmore, 1910
Z: transcribed to **kern format by Paul von Hippel and Daniel T. Shanahan
L: 1/4
M: 3/4
Q: 1/4=108
K: G clef=bass
%%linebreak <none>
D/ D/ [I:setbarnb 1]| 
DCB, | 
B,2B, | 
B,B,G, | 
B,2B, | 
B,G,G, | 
[M:4/4]G,2G,G, | 
[M:3/4]G,2G, | 
G,2B,/ B,/ | 
B,A,G, | 
G,2G, | 
G,G,E, | 
G,2G, | 
G,E,E, | 
[M:4/4]E,2E,E, | 
[M:3/4]E,2E, | 
E,2E,/ E,/ | 
E,>G,G, | 
[M:4/4]G,2G,G, | 
[M:3/4]G,G,G, | 
A,2A, | 
A,G,G, | 
[M:4/4]G,2G,G, | 
[M:3/4]G,2G, | 
G,2D/ D/ | 
DCB, | 
B,2B, | 
B,B,G, | 
B,2B, | 
B,G,G, | 
[M:4/4]G,2G,G, | 
[M:3/4]G,2G, | 
G,2B,/ B,/ | 
B,A,G, | 
G,2G, | 
G,G,E, | 
G,2G, | 
G,E,E, | 
[M:4/4]E,2E,E, | 
[M:3/4]E,2E, | 
E,2E,/ E,/ | 
E,>G,G, | 
G,2G, | 
G,G,G, | 
A,2A, | 
A,G,G, | 
[M:4/4]G,2G,G, | 
G,2G,G, | 
G,z3 |]  



